X:3203
T:Menuett nr 7 
S:efter avskrift (låt nr 7 häri) av [[Personer/Samuel Landtmanson]] 
S:efter Gustaf Blidström
R:Menuett
B:Menuetter och polska dantzar
O:Tobolsk, Ryssland / Skara, Västergötland
M:3/4
L:1/8
Z:Per Oldberg 2013
V:1
V:2
K:Gmaj
V:1
|: "G"B4A2 | B2 GABG | "Am"c4B2 | c2ABcA | "D7"d2dddd | "Em"d2gfgd | "Am"e2edcB | "D"A6 :| 
V:2
|:G4F2 | G2DFGD | A4G2 | A2EGAE | F2FFGA | B2edeB | c2cBAG | F6 :| 
V:1
|: "Am"e2a2a2 | "D"f2efd2 | "Am"e2a2a2 | "D"f2efdc | "G"B2c2d2 | "C"e2efg2 | "D"BAA3G | "G"G6 :| 
V:2
|: c2c2c2 | d2cAF2 | c2c2c2 | d2cdBA | G2A2B2 | c2cde2 | GD C3B, | B,6 :| 

(:musicend:)
(:music:)
